svgs/solid/floppy-disk-pen.svg

<svg xmlns="http://www.w3.org/2000/svg" viewBox="0 0 576 512"><!--! Font Awesome Pro 6.0.0-alpha3 by @fontawesome - https://fontawesome.com License - https://fontawesome.com/license (Commercial License) --><path d="M565.5 255.7l-21.1-21.11c-14.06-14.06-36.85-14.06-50.91 0l-38.13 38.13l72.01 72.01l38.13-38.13C579.5 292.5 579.5 269.7 565.5 255.7zM448 163.9c0-10.94-6.307-26.16-14.04-33.9l-83.9-83.9C342.3 38.32 327.1 32 316.1 32H64C28.65 32 0 60.65 0 96v320c0 35.35 28.65 64 64 64h195.8l11.29-56.47c1.906-9.609 6.594-18.45 13.59-25.48L448 234.7V163.9zM224 416c-35.34 0-64-28.66-64-64s28.66-64 64-64s64 28.66 64 64S259.3 416 224 416zM320 208C320 216.8 312.8 224 304 224h-224C71.16 224 64 216.8 64 208v-96C64 103.2 71.16 96 80 96h224C312.8 96 320 103.2 320 112V208zM307.4 420.6c-2.514 2.512-4.227 5.715-4.924 9.203l-14.28 71.41c-1.258 6.289 4.293 11.84 10.59 10.59l71.42-14.29c3.482-.6992 6.682-2.406 9.195-4.922l125.3-125.3l-72.01-72.01L307.4 420.6z"/></svg>

<svg xmlns="http://www.w3.org/2000/svg" viewBox="0 0 576 512"><!-- Font Awesome Pro 6.0.0-alpha2 by @fontawesome - https://fontawesome.com License - https://fontawesome.com/license (Commercial License) --><path d="M565.457 255.648L544.355 234.543C530.297 220.484 507.504 220.484 493.447 234.543L455.313 272.68L527.322 344.688L565.453 306.559C579.514 292.5 579.516 269.707 565.457 255.648ZM448 163.887C448 152.949 441.672 137.672 433.938 129.938L350.062 46.062C342.328 38.328 327.051 32 316.113 32H64C28.654 32 0 60.652 0 96V416C0 451.346 28.654 480 64 480H259.807L271.094 423.531C273 413.922 277.688 405.078 284.688 398.047L448 234.734V163.887ZM224 416C188.656 416 160 387.344 160 352S188.656 288 224 288S288 316.656 288 352S259.344 416 224 416ZM320 208C320 216.836 312.836 224 304 224H80C71.164 224 64 216.836 64 208V112C64 103.162 71.164 96 80 96H304C312.836 96 320 103.162 320 112V208ZM307.385 420.609C304.871 423.121 303.158 426.324 302.461 429.813L288.18 501.227C286.922 507.516 292.473 513.07 298.77 511.813L370.189 497.527C373.672 496.828 376.871 495.121 379.385 492.605L478.307 393.695H478.312L504.697 367.313L432.689 295.305L307.385 420.609Z"/></svg>
